!!!COM: Monteverdi, Claudio
!!!CDT:
!!!PTL: Il terzo libro de madrigali a cinque voci
!!!PPP: Venice
!!!PPR: Ricciardo Amadino
!!!PDT: 1592
!!!PUB-format:
!!!RISM: M 3459
!!!OTL: Vattene pur, crudel, con quella pace
!!!AGN: Madrigal
!!!SCT: Tsg16059a
!!!SCA: Tsg16059a
!!!original-voices: 5
!!!extant-voices: 5
!!!complete: Y
!!!final: (A)D
**kern	**text	**kern	**text	**kern	**text	**kern	**text	**kern	**text
*part5	*part5	*part4	*part4	*part3	*part3	*part2	*part2	*part1	*part1
*staff5	*staff5	*staff4	*staff4	*staff3	*staff3	*staff2	*staff2	*staff1	*staff1
*I"Basso	*	*I"Tenore	*	*I"Alto	*	*I"Qvinto	*	*I"Canto	*
*I'B	*	*I'T	*	*I'A	*	*I'V	*	*I'C	*
*oclefF3	*	*oclefC3	*	*oclefC2	*	*oclefG2	*	*oclefG2	*
*clefF4	*	*clefGv2	*	*clefG2	*	*clefG2	*	*clefG2	*
*k[]	*	*k[]	*	*k[]	*	*k[]	*	*k[]	*
*C:	*	*C:	*	*C:	*	*C:	*	*C:	*
*omet(C)	*	*omet(C)	*	*omet(C)	*	*omet(C)	*	*omet(C)	*
*M4/2	*	*M4/2	*	*M4/2	*	*M4/2	*	*M4/2	*
=1	=1	=1	=1	=1	=1	=1	=1	=1	=1
!!LO:TX:a:t=Prima parte.
0r	.	0r	.	0r	.	0r	.	2.a	“Vat-
.	.	.	.	.	.	.	.	8a	-te-
.	.	.	.	.	.	.	.	8a	-ne
.	.	.	.	.	.	.	.	4a	pur,
.	.	.	.	.	.	.	.	4a	cru-
.	.	.	.	.	.	.	.	2ff	-del,
=2	=2	=2	=2	=2	=2	=2	=2	=2	=2
0r	.	0r	.	2r	.	0r	.	4r	.
.	.	.	.	.	.	.	.	4a	con
.	.	.	.	2.d	“Vat-	.	.	4a	quel-
.	.	.	.	.	.	.	.	4a	-la
.	.	.	.	.	.	.	.	2a	pa-
.	.	.	.	8d	-te-	.	.	.	.
.	.	.	.	8d	-ne	.	.	.	.
.	.	.	.	4d	pur,	.	.	4a	-ce
.	.	.	.	4d	cru-	.	.	4a	Che
=3	=3	=3	=3	=3	=3	=3	=3	=3	=3
0r	.	0r	.	2b-X	-del,	2r	.	4g	la-
.	.	.	.	.	.	.	.	4g	.
.	.	.	.	4r	.	2.a	“Vat-	1f	-me,
.	.	.	.	4d	con	.	.	.	.
.	.	.	.	4d	quel-	.	.	.	.
.	.	.	.	4d	-la	8a	-te-	.	.
.	.	.	.	.	.	8a	-ne	.	.
.	.	.	.	2d	pa-	4a	pur,	4r	.
.	.	.	.	.	.	4a	cru-	[4a	Vat-
=4	=4	=4	=4	=4	=4	=4	=4	=4	=4
0r	.	0r	.	2d	-ce,	2ff	-del,	4a]	.
.	.	.	.	.	.	.	.	8a	-te-
.	.	.	.	.	.	.	.	8a	-ne
.	.	.	.	4r	.	4r	.	4a	pur,
.	.	.	.	4d	con	4f	con	4a	cru-
.	.	.	.	4d	quel-	4f	quel-	2b	-del,
.	.	.	.	4d	-la	4f	-la	.	.
.	.	.	.	2d	pa-	2f	pa-	4r	.
.	.	.	.	.	.	.	.	4a	con
=5	=5	=5	=5	=5	=5	=5	=5	=5	=5
0r	.	0r	.	2.d	-ce	2.f	-ce	4a	quel-
.	.	.	.	.	.	.	.	4a	-la
.	.	.	.	.	.	.	.	2a	pa-
.	.	.	.	4d	Che	4f	Che	.	.
.	.	.	.	4c	la-	4e	la-	4a	-ce
.	.	.	.	4c	-sci a	4e	-sci a	4a	Che
.	.	.	.	2B-X	me:	2d	me:	4g	la-
.	.	.	.	.	.	.	.	4g	-sci a
=6	=6	=6	=6	=6	=6	=6	=6	=6	=6
0r	.	0r	.	4.d	Vat-	4r	.	4f	me:
.	.	.	.	.	.	4.f	Vat-	4.a	Vat-
.	.	.	.	8e	-te-	.	.	.	.
.	.	.	.	2f	-ne,	.	.	.	.
.	.	.	.	.	.	8g	-te-	8b	-te-
.	.	.	.	.	.	4a	-ne,	2cc	-ne,
.	.	.	.	4.a	vat-	4.cc	vat-	.	.
.	.	.	.	.	.	.	.	4.ee	vat-
.	.	.	.	8b	-te-	8dd	-te-	.	.
.	.	.	.	4cc	-ne,	4ee	-ne,	.	.
.	.	.	.	.	.	.	.	8ff	-te-
.	.	.	.	[4g	i-	4dd	i-	4gg	-ne,
=7	=7	=7	=7	=7	=7	=7	=7	=7	=7
1r	.	4r	.	4g]	.	4b	-ni-	4dd	i-
.	.	4g	Me	4c	-ni-	2cc	-quo ho-	4cc	-ni-
.	.	4g	to-	2G	-quo ho-	.	.	2dd	-quo ho-
.	.	4g	-sto i-	.	.	4b	-ma-	.	.
2r	.	4g	-gnu-	2.c	-mai.	2cc	-i.	2cc	-mai.
.	.	4a	-do	.	.	.	.	.	.
4r	.	[2g	spir-	.	.	4r	.	4r	.
4C	Me	.	.	4cc	Me	4ee	Me	4gg	Me
=8	=8	=8	=8	=8	=8	=8	=8	=8	=8
4C	to-	4g]	.	4cc	to-	4ee	to-	4gg	to-
4C	-sto i-	4.c	-to, om-	4cc	-sto i	4ee	-sto i-	4gg	-sto i-
4C	-gnu-	.	.	4cc	gnu-	4ee	-gnu-	4gg	-gnu-
.	.	8G	-bra	.	.	.	.	.	.
4F	-do	4A	se-	4cc	-do	4ff	-do	4ff	-do
2.C	spir-	2e	-gva-	4cc	spir-	2.gg	spir-	2.ee	spir-
.	.	.	.	4.cc	-to, o-	.	.	.	.
.	.	2c	-ce,	.	.	.	.	.	.
.	.	.	.	8g	-bra	.	.	.	.
[4F	-to, om-	.	.	4a	se-	[4ff	-to, om-	[4aa	-to, om-
=9	=9	=9	=9	=9	=9	=9	=9	=9	=9
8F]	.	2r	.	2a	-gva-	8ff]	.	8aa]	.
8C	-bra	.	.	.	.	8ee	-bra	8gg	-bra
4D	se-	.	.	.	.	4dd	se-	4ff	se-
2A	-gva-	4r	.	2a	-ce,	2cc#X	-gva-	2ee	-gva-
.	.	4e	In-	.	.	.	.	.	.
2A	-ce,	8e	-di-	2r	.	4cc#X	-ce,	4ee	-ce,
.	.	8e	-vi-	.	.	.	.	.	.
.	.	8e	-si-	.	.	4cc#X	In-	4ee	In-
.	.	8e	-bil-	.	.	.	.	.	.
2r	.	2a	-men-	4r	.	8cc#i	-di-	8ee	-di-
.	.	.	.	.	.	8cc#X	-vi-	8ee	-vi-
.	.	.	.	4a	In-	8cc#X	-si-	8ee	-si-
.	.	.	.	.	.	8cc#X	-bil-	8ee	-bil-
=10	=10	=10	=10	=10	=10	=10	=10	=10	=10
4r	.	2d	.	8a	-di-	1dd	-men-	1ff	-men-
.	.	.	.	8a	-vi-	.	.	.	.
4D	In-	.	.	8a	-si-	.	.	.	.
.	.	.	.	8a	-bil-	.	.	.	.
8D	-di-	1d	-ter-	2a	-men-	.	.	.	.
8D	-vi-	.	.	.	.	.	.	.	.
8D	-si-	.	.	.	.	.	.	.	.
8D	-bil-	.	.	.	.	.	.	.	.
2G	-men-	.	.	2g	-te a	2b	-te a	2dd	-te a
2E	-te a	2c	-go ha-	[2g	ter-	[2cc	ter-	[2ee	ter-
=11	=11	=11	=11	=11	=11	=11	=11	=11	=11
2.F	ter-	2A	-vra-	2g]	.	2cc]	.	4ee]	.
.	.	.	.	.	.	.	.	4dd	-go ha-
.	.	2A	-i.	2f	-go ha-	2a	-go ha-	1dd	-vra-
4G	-go ha-	.	.	.	.	.	.	.	.
1A	-vra-	2r	.	2e	-vra-	1a	-vra-	.	.
.	.	4a	No-	2e	-i.	.	.	2cc#X	.
.	.	4g	-va	.	.	.	.	.	.
=12	=12	=12	=12	=12	=12	=12	=12	=12	=12
1D	-i.	4f	fu-	2r	.	1a	-i.	1dd	-i.
.	.	8f	-ria,	.	.	.	.	.	.
.	.	8f	co’	.	.	.	.	.	.
.	.	4f	ser-	4r	.	.	.	.	.
.	.	4f	-pi e	2a	Tan-	.	.	.	.
1r	.	4f	con	.	.	4d	No-	4aa	No-
.	.	4e	la	8a	-to	4e	-va	4gg	-va
.	.	.	.	8a	t’a-	.	.	.	.
.	.	2d	fa-	4a	-gi-	4f	fu-	4ff	fu-
.	.	.	.	4a	-te-	8f	-ria,	8ff	-ria,
.	.	.	.	.	.	8f	co’	8ff	co’
=13	=13	=13	=13	=13	=13	=13	=13	=13	=13
0r	.	4d	-ce	2.a	-rò	4f	ser-	4ff	ser-
.	.	2d	Tan-	.	.	4f	-pi e	4ff	-pi e
.	.	.	.	.	.	2.f	con	4ff	con
.	.	8d	-to	2a	quan-	.	.	4ee	la
.	.	8d	t’a-	.	.	.	.	.	.
.	.	4d	-gi-	.	.	.	.	2dd	fa-
.	.	4d	-te-	2g	-to	4g	la	.	.
.	.	4d	-rò	.	.	2a	fa-	2dd	-ce,
.	.	[4d	quan-	4f	t’a-	.	.	.	.
=14	=14	=14	=14	=14	=14	=14	=14	=14	=14
2r	.	4d]	.	2e	-ma-	2a	-ce,	2r	.
.	.	2c	-to	.	.	.	.	.	.
4A	No-	.	.	2e	-i,	2r	.	4a	No-
4G	-va	4B	t’a-	.	.	.	.	4b	-va
4F	fu-	2A	-ma-	1r	.	4f	No-	4cc	fu-
8F	-ria,	.	.	.	.	4g	-va	8cc	-ria,
8F	co’	.	.	.	.	.	.	8cc	co’
4F	ser-	2A	-i,	.	.	4a	fu-	4cc	ser-
4F	.	.	.	.	.	8a	-ria,	4cc	-pi e
.	.	.	.	.	.	8a	co’	.	.
=15	=15	=15	=15	=15	=15	=15	=15	=15	=15
4F	-con	1r	.	1r	.	4a	ser-	2cc	con
4E	la	.	.	.	.	4a	-pi e	.	.
2D	fa-	.	.	.	.	4a	con	2dd	la
.	.	.	.	.	.	4b	la	.	.
1A	-ce	4r	.	1r	.	2cc	fa-	2ee	fa-
.	.	2a	Tan-	.	.	.	.	.	.
.	.	.	.	.	.	4cc	-ce	4ee	-ce
.	.	8a	-to	.	.	[4cc	Tan-	[4ee	Tan-
.	.	8a	t’a-	.	.	.	.	.	.
=16	=16	=16	=16	=16	=16	=16	=16	=16	=16
0r	.	4a	-gi-	0r	.	4cc]	.	4ee]	.
.	.	4a	-te-	.	.	8cc	-to	8ee	-to
.	.	.	.	.	.	8cc	t’a-	8ee	t’a-
.	.	4a	-rò	.	.	4cc	-gi-	4ee	-gi-
.	.	2a	quan-	.	.	4cc	-te-	4ee	-te-
.	.	.	.	.	.	4cc	-rò	4ee	-rò
.	.	2g	-to	.	.	2b	quan-	2ee	quan-
.	.	4f	t’a-	.	.	4a	-to	[4dd	-to
=17	=17	=17	=17	=17	=17	=17	=17	=17	=17
1r	.	1e	-ma-	2r	.	4g#X	t’a-	4dd]	.
.	.	.	.	.	.	2a	-ma-	4cc	t’a-
.	.	.	.	4e	No-	.	.	2b	-ma-
.	.	.	.	4d	-va	4g#X	.	.	.
2.A	Tan-	2e	-i,	4c	fu-	2a	-i,	2a	-i.
.	.	.	.	8c	-ria,	.	.	.	.
.	.	.	.	8c	co	.	.	.	.
.	.	[2e	Tan-	4c	ser-	2r	.	4ee	No-
8A	-to	.	.	4c	-pi e	.	.	4dd	-va
8A	t’a-	.	.	.	.	.	.	.	.
=18	=18	=18	=18	=18	=18	=18	=18	=18	=18
4A	-gi-	4e]	.	4c	con	2.a	Tan-	4cc	fu-
4A	-te-	8e	-to	4B	la	.	.	8cc	-ria,
.	.	8e	t’a-	.	.	.	.	8cc	co’
4A	-rò	4e	-gi-	2A	fa-	.	.	4cc	ser-
2A	quan-	4e	-te-	.	.	8a	-to-	4cc	-pi e
.	.	.	.	.	.	8a	-t’a-	.	.
.	.	4e	-rò	2e	-ce	4a	-gi-	4cc	con
2G	-to	2e	quan-	.	.	4a	-te-	4b	la
.	.	.	.	2r	.	4a	-rò	2a	fa-
4F	t’a-	4A	-to	.	.	[4a	quan-	.	.
=19	=19	=19	=19	=19	=19	=19	=19	=19	=19
2E	-ma-	4B	t’a-	2r	.	4a]	.	2ee	-ce
.	.	4.c	-ma-	.	.	2g	-to	.	.
1A	-i,	.	.	4r	.	.	.	1r	.
.	.	8A	.	.	.	.	.	.	.
.	.	2d	.	2a	Tan-	4f	t’a-	.	.
.	.	.	.	.	.	2e	-ma-	.	.
.	.	4c#X	.	8a	-to	.	.	.	.
.	.	.	.	8a	t’a-	.	.	.	.
[2d	Tan-	2d	-i.	4a	-gi-	2d	-i,	[2ff	Tan-
.	.	.	.	4a	-te-	.	.	.	.
=20	=20	=20	=20	=20	=20	=20	=20	=20	=20
4d]	.	0r	.	4a	-rò	2.dd	Tan-	4ff]	.
8d	-to	.	.	2a	quan-	.	.	8ff	-to
8d	t’a-	.	.	.	.	.	.	8ff	t’a-
4d	-gi-	.	.	.	.	.	.	4ff	-gi-
4d	-te-	.	.	2g	-to,	8dd	-to	4gg	-te-
.	.	.	.	.	.	8dd	t’a-	.	.
4d	-rì	.	.	.	.	4dd	-gi-	4aa	-rò
4d	quan-	.	.	2f	quan-	4dd	-te-	2aa	quan-
4f	-to	.	.	.	.	4.cc	-rò	.	.
4c	t’a-	.	.	4e	-to	.	.	[4gg	-to
.	.	.	.	.	.	8b	.	.	.
=21	=21	=21	=21	=21	=21	=21	=21	=21	=21
2d	-ma-	2r	.	2f	t’a-	4a	.	4gg]	.
.	.	.	.	.	.	4.b-X	quan-	4ff	t’a-
2c	-i.	4r	.	2cc	-ma-	.	.	4gg	-ma-
.	.	.	.	.	.	8b-X	-to	.	.
.	.	4c	E	.	.	4a	t’a-	2ff	.
2r	.	4c	s’è	2.cc	-i.	2g	-ma-	.	.
.	.	4c	de-	.	.	.	.	4ee	.
2F	E	[2c	-stin	.	.	4a	-i.	4ff	-i.
.	.	.	.	4f	E	4cc	E	4a	E
=22	=22	=22	=22	=22	=22	=22	=22	=22	=22
4F	s’è	4c]	.	4f	s’è	4cc	s’è	4a	s’è
4F	de-	4A	ch’e-	4f	de-	4cc	de-	4a	de-
2.F	-stin	4A	-sca	2.f	-stin	2.cc	-stin	2.a	-stin
.	.	4A	del	.	.	.	.	.	.
.	.	2A	mar,	.	.	.	.	.	.
4D	ch’e-	.	.	4a	ch’e-	4ff	ch’e-	4dd	ch’e-
4D	-sca	4r	.	4a	-sca	4ff	-sca	4dd	-sca
4D	del	4A	che	4a	del	4ff	del	4dd	del
=23	=23	=23	=23	=23	=23	=23	=23	=23	=23
2D	mar,	4d	schi-	1a	mar,	1ff	mar,	4dd	mar,
.	.	8d	-vi	.	.	.	.	4a	che
.	.	8d	Li	.	.	.	.	.	.
4r	.	4d	sco-	.	.	.	.	4dd	schi-
4D	che	4d	-gli e	.	.	.	.	8dd	-vi
.	.	.	.	.	.	.	.	8dd	Li
4G	schi-	8dL	l’on-	4r	.	2r	.	4dd	sco-
.	.	8c	.	.	.	.	.	.	.
8G	-vi	8B	.	4d	che	.	.	4dd	-gli e
8G	Li	8AJ	.	.	.	.	.	.	.
4G	sco-	8BL	.	4g	schi-	4r	.	8ddL	l’on-
.	.	8A	.	.	.	.	.	8cc	.
4G	-gli e	8G	.	8g	-vi	4dd	che	8b	.
.	.	8F#XJ	.	8g	Li	.	.	8aJ	.
=24	=24	=24	=24	=24	=24	=24	=24	=24	=24
8GL	l’on-	2G	.	4g	sco-	4gg	schi-	2b	.
8F	.	.	.	.	.	.	.	.	.
8E	.	.	.	4g	-gli e	8gg	-vi	.	.
8DJ	.	.	.	.	.	8gg	Li	.	.
8EL	.	4G	-de,	8gL	l’on-	4gg	sco-	2g	-de,
8D	.	.	.	8f	.	.	.	.	.
8C	.	4c	che	8e	.	4gg	-gli e	.	.
8BBJ	.	.	.	8dJ	.	.	.	.	.
2C	.	4g	schi-	8eL	.	8ggL	l’on-	4r	.
.	.	.	.	8d	.	8ff	.	.	.
.	.	8g	-vi	8c	.	8ee	.	4cc	che
.	.	8g	Li	8BJ	.	8ddJ	.	.	.
4C	-de,	4g	sco-	4.c	.	8eeL	.	4gg	schi-
.	.	.	.	.	.	8dd	.	.	.
4C	che	4g	-gli e	.	.	8cc	.	8gg	-vi
.	.	.	.	8d	.	8bJ	.	8gg	Li
=25	=25	=25	=25	=25	=25	=25	=25	=25	=25
4c	schi-	8gL	l’on-	4.e	.	2cc	.	4gg	sco-
.	.	8f	.	.	.	.	.	.	.
8c	-vi	8e	.	.	.	.	.	4gg	-gli e
8c	Li	8dJ	.	8f	.	.	.	.	.
4c	sco-	8eL	.	2g	.	4cc	-de,	8ggL	l’on-
.	.	8d	.	.	.	.	.	8ff	.
4c	-gli e	8c	.	.	.	4g	che	8ee	.
.	.	8BJ	.	.	.	.	.	8ddJ	.
8cL	l’on-	1c	.	4g	-de,	4cc	schi-	8eeL	.
8B	.	.	.	.	.	.	.	8dd	.
8A	.	.	.	4c	che	8cc	-vi	8cc	.
8GJ	.	.	.	.	.	8cc	Li	8bJ	.
8AL	.	.	.	4f	schi-	4cc	sco-	8ccL	.
8G	.	.	.	.	.	.	.	8b	.
8F	.	.	.	8f	-vi	4cc	-gli e	8a	.
8EJ	.	.	.	8f	Li	.	.	8gJ	.
=26	=26	=26	=26	=26	=26	=26	=26	=26	=26
1F	.	1c	-de	4f	sco-	8ccL	l’on-	8aL	.
.	.	.	.	.	.	8b	.	8g	.
.	.	.	.	4f	-gli e	8a	.	8f	.
.	.	.	.	.	.	8gJ	.	8eJ	.
.	.	.	.	2f	l’on-	8aL	.	8fL	.
.	.	.	.	.	.	8g	.	8e	.
.	.	.	.	.	.	8f	.	8f	.
.	.	.	.	.	.	8eJ	.	8gJ	.
1F	-de	4r	.	2c	-de	2f	.	2a	.
.	.	4c	e	.	.	.	.	.	.
.	.	4c	che a	4r	.	2f	-de	2a	-de
.	.	4c	la	4c	e	.	.	.	.
=27	=27	=27	=27	=27	=27	=27	=27	=27	=27
4r	.	1.A	pu-	4c	che a	4r	.	4r	.
4F	e	.	.	4c	la	4cc	e	4a	e
4F	che a	.	.	4.f	pu-	4cc	che a	4a	che a
4F	la	.	.	.	.	4cc	la	4a	la
.	.	.	.	8g	.	.	.	.	.
2D	pu-	.	.	2a	.	2ff	pu-	2dd	pu-
2A	-gna ar-	2A	-gna ar-	2a	-gna ar-	2ee	-gna ar-	2cc	-gna ar-
=28	=28	=28	=28	=28	=28	=28	=28	=28	=28
1D	-ri-	1A	-ri-	1f	-ri-	1dd	-ri-	1a	-ri-
2Al	-vi.	2Al	-vi.	2el	-vi.	2cc#Xl	-vi.	2al	-vi.
==	==	==	==	==	==	==	==	==	==
*-	*-	*-	*-	*-	*-	*-	*-	*-	*-
!!!system-decoration: [*]
!!!RDF**kern: i = editorial accidental
!!!RDF**kern: l = terminal long
!!!ENC: Emiliano Ricciardi
!!!END: 2019
!!!EED: Giles, Roseen
!!!EEV: 2019/01/21
!!!YEC: Copyright 2018 Emiliano Ricciardi, All Rights Reserved
!!!ONB: Translated from MusicXML on 2019/01/21
!!@@BEGIN:	VERSEDATA
!!@CATALOGNUM:	Tsg16059
!!@LAST_MODIFIED: 2020/07/12
!!@TITLE:		Vattene pur, crudel, con quella pace
!!@CANTO:		XVI
!!@OTTAVA:	59
!!@MANUSRC:	G-Al, G-Au, G-Br<sub>1</sub>, G-Br<sub>2</sub>, G-Cv, G-Es<sub>1</sub>, G-Es<sub>2</sub>, G-Es<sub>3</sub>, G-F, G-Fr, G-Fr<sub>1</sub>, G-Fr<sub>2</sub>, G-Mc<sub>1</sub>, G-Mg, G-Mr, G-Mt, G-N, G-Ol
!!@PRINTSRC:	G-1580CM, G-1581B, G-1581CV, G-1581R, G-1581MR, G-1581P, G-1581V, G-1581V<sub>bis</sub>, G-1582C, G-1582M, G-1582MC, G-1582P, G-1582SC, G-1582SC<sub>bis</sub>, G-1583S, G-1584O, G-1584S, G-1585C, G-1585S, G-1588S, G-1589S, G-1590B, G-1590S, G-1592S, G-1593S, G-1594C, G-1595C, G-1597C, G-1598C, G-1599C, G-1600C, G-1600S, G-1601C, G-1601R, G-1602C, G-1604C, G-1604Cl, G-1604F, G-1604P, G-1606B, G-1606B<sub>bis</sub>, G-1606L, G-1607ZR, G-1608DP, G-1609GC, G-1610M, G-1611S, G-1611V, G-1612P, G-1613M, G-1613P, G-1613V, G-1615P, G-1616M, G-1617P, G-1619B, G-1619V, G-1620M, G-1620S, G-1621R, G-1624I, G-1624MT, G-1625C, G-1625S, G-1625SS, G-1626C, G-1626Co, G-1627M, G-1628T, G-1628Tu, G-1630L, G-1630T, G-1632FT, G-1639CF, G-1642M, G-1643I, G-1644P, G-1644S
!!@@BEGIN:	VERSES
!!@ABOUTIT:
!!@ABOUTEN:
!!@EDITOR:	Angelo Solerti
!!@EDITION_TITLE: Gerusalemme liberata. Poema eroico di Torquato Tasso. Edizione critica sui manoscritti e le prime stampe.
!!@EDITION_LOC:	Florence
!!@EDITION_PUB:	G. Barbera
!!@EDITION_DATE:  1895
!!@EDITION_VOL:
!!@EDITION_PAGE:
!!@TRANSLATOR:	Emiliano Ricciardi and Amyrose McCue Gill
!!@VERSE:
!!	Vattene pur, crudel, con quella pace
!!	Che lasci a me: vattene, iniquo, omai;
!!	Me tosto ignudo spirto, ombra seguace
!!	Indivisibilmente a tergo avrai.
!!	Nuova furia co’ serpi e con la face
!!	Tanto t’agiterò quanto t’amai.
!!	E s’è destin ch’esca del mar, che schivi
!!	Gli scogli e l’onde, e ch’alla pugna arrivi:
!!@TVERSE:
!!	Begone then, cruel man, with that peace
!!	Which you leave to me: begone already, wicked man;
!!	At once my naked breath—a shadow following
!!	Inseparably at your back—shall you have.
!!	A new fury with vipers and with a blaze
!!	I will torment you as much as I loved you.
!!	And if it is destiny that you emerge from the sea, that you avoid
!!	The rocks and the waves, and that to battle you come:
!!@@END:		VERSES
!!@OTHER_CRIT_ED:  Torquato Tasso, <i>Gerusalemme liberata</i>, ed. Lanfranco Caretti, 2 vols. (Bari: Laterza, 1967).
!!@ATTRIBUTION_ABOUT:
!!@DATING:	mid-1560s through 1570s
!!@DEDICATEE:	Duke Alfonso II d'Este
!!@COMMENTARY:
!!@@END:		VERSEDATA
!!@@BEGIN: SETTING
!!@CATALOGNUM:	Tsg16059a
!!@CANTO:		XVI
!!@OTTAVA:	59
!!@TITLE:	"Vattene pur, crudel, con quella pace
!!@COMPOSER:	Monteverdi, Claudio
!!@PARTS:		1 of 3
!!@PRINCEPSTITLE:	Il terzo libro de madrigali a cinque voci
!!@PRINCEPSLOC:	Venice
!!@NORMLOC:	Venice
!!@NORMPUB:	Ricciardo Amadino
!!@NORMPUBSHORT:	Amadino
!!@PRINCEPSPUB:	Ricciardo Amadino
!!@PRINCEPSYEAR:	1592
!!@PRINCEPSRISM:	M 3459
!!@OVOICES:	5
!!@EXTANTVOICES:	5
!!@OMENSURATION:	C
!!@OCLEFS:	G2,G2,C2,C3,F3
!!@OTIME:		
!!@OKEYSIG:	-
!!@FINAL:		(A)D
!!@TIMPEDITOR:	Giles, Roseen
!!@REPRINTS:	M 3460, M 3461, M 3462, M 3463, M 3464
!!@YOUTUBE:	ilNWO9EGO8I
!!@YOUTUBESTART:	2235
!!@YOUTUBEEND:	2352
!!@@END: SETTING
